www/assets/icons/museum.svg

<svg xmlns="http://www.w3.org/2000/svg" width="24" height="24" viewBox="0 0 24 24" fill='currentColor'><path d="M22 11V9L12 2 2 9v2h2v9H2v2h20v-2h-2v-9zm-6 7h-2v-4l-2 3-2-3v4H8v-7h2l2 3 2-3h2z"/></svg>

<svg width="24" height="24" viewBox="0 0 24 24" xmlns="http://www.w3.org/2000/svg" fill='currentColor'><path d="M22 11V9L12 2L2 9V11H4V20H2V22H22V20H20V11H22ZM16 18H14V14L12 17L10 14V18H8V11H10L12 14L14 11H16V18Z"/></svg>
